web-components-icons/e500-image/SVG/make-vertical-spacing-equal.svg

<?xml version="1.0" encoding="utf-8"?>
<!-- Generator: Adobe Illustrator 24.2.0, SVG Export Plug-In . SVG Version: 6.00 Build 0)  -->
<svg version="1.1" id="Layer_1" xmlns="http://www.w3.org/2000/svg" xmlns:xlink="http://www.w3.org/1999/xlink" x="0px" y="0px"
	 width="512px" height="512px" viewBox="0 0 512 512" xml:space="preserve">
<path d="M256,320v96h96v64H128v-64h96v-96H64v-96h160v-96h-64V32h160v96h-64v96h160v96H256z"/>
</svg>

<svg xmlns="http://www.w3.org/2000/svg" viewBox="0 0 512 512"><defs><style>.cls-1{fill-rule:evenodd;}</style></defs><title>make-vertical-spacing-equal</title><g id="make_vertical_spacing_equal" data-name="make vertical spacing equal"><path class="cls-1" d="M256,320v96h96v64H128V416h96V320H64V224H224V128H160V32H320v96H256v96H416v96Z"/></g></svg>
